icons/steering-line.svg

<svg viewBox="0 0 24 24" fill="currentColor" xmlns="http://www.w3.org/2000/svg"><path d="M21.7992 14.001C20.9633 18.1168 17.5995 21.3145 13.399 21.9028L13.3992 19.878C16.4926 19.3321 18.9729 17.0086 19.7473 14.0004L21.7992 14.001ZM4.25157 14.0004C5.01757 16.9759 7.45244 19.2814 10.4989 19.8595V21.8882C6.3456 21.2632 3.02888 18.0838 2.19968 14.001L4.25157 14.0004ZM17.9994 11V13H14.9994C13.9451 13 13.0813 13.8159 13.0049 14.8507L12.9994 15V18H10.9994V15C10.9994 13.9456 10.1836 13.0818 9.14871 13.0055L8.99944 13H5.99944V11H17.9994ZM11.9994 2C17.1848 2 21.4483 5.94662 21.9501 10.9999L19.9376 11C19.4455 7.05371 16.0791 4 11.9994 4C7.91981 4 4.55341 7.05371 4.06133 11L2.04883 10.9999C2.5506 5.94662 6.81413 2 11.9994 2Z"/></svg>

<svg xmlns="http://www.w3.org/2000/svg" viewBox="0 0 24 24">
    <g>
        <path fill="none" d="M0 0h24v24H0z"/>
        <path d="M21.8 14.001a10.009 10.009 0 0 1-8.4 7.902v-2.025A8.01 8.01 0 0 0 19.748 14l2.052.001zm-17.548 0a8.01 8.01 0 0 0 6.247 5.858v2.03A10.01 10.01 0 0 1 2.2 14h2.052zM18 11v2h-3a2 2 0 0 0-1.995 1.85L13 15v3h-2v-3a2 2 0 0 0-1.85-1.995L9 13H6v-2h12zm-6-9c5.185 0 9.449 3.947 9.95 9h-2.012a8.001 8.001 0 0 0-15.876 0H2.049C2.551 5.947 6.815 2 12 2z"/>
    </g>
</svg>
